X:2108
T:Fuaire/as-sa cuireadh
O:england
M:12/8
L:1/8
Q:80
C:Traditonal
S:Nó\ríin  N í Riain
R:Air/ballad
B:STóR  AMHRáN
K:F
|GGG GGG G AF  E2 C| C2 F FFF FFF AGF| G2 G G2 G GAF E2C| C2 c AcA B
GE F3| c
2 c BBB AGF E2 C|C2 FFF FFF FAGF| c2c B2B AGF E2C| C2 c A cA  BGE  F3
||


